Papirus/22x22/panel/qbittorrent-panel.svg

<?xml version="1.0" encoding="UTF-8" standalone="no"?>
<svg id="svg2817" xmlns:rdf="http://www.w3.org/1999/02/22-rdf-syntax-ns#" xmlns="http://www.w3.org/2000/svg" height="22" width="22" version="1.0" xmlns:cc="http://creativecommons.org/ns#" xmlns:dc="http://purl.org/dc/elements/1.1/">
 <metadata id="metadata57">
  <rdf:RDF>
   <cc:Work rdf:about="">
    <dc:format>image/svg+xml</dc:format>
    <dc:type rdf:resource="http://purl.org/dc/dcmitype/StillImage"/>
    <dc:title/>
   </cc:Work>
  </rdf:RDF>
 </metadata>
 <defs id="defs2819">
  <clipPath id="clipPath4186" clipPathUnits="userSpaceOnUse">
   <circle id="path4188" style="color:#000000" cx="286" cy="26" r="10" fill="url(#linearGradient4190)"/>
  </clipPath>
 </defs>
 <circle id="path4240" opacity="0" style="color:#000000" stroke-width=".45455" clip-path="url(#clipPath4186)" transform="matrix(1.4,0,0,1.4,-384.4,-30.4)" cy="26" cx="286" r="10"/>
 <circle id="path4242" opacity="0" style="color:#000000" stroke-width=".90909" clip-path="url(#clipPath4186)" transform="matrix(1.4,0,0,1.4,-384.4,-30.4)" cy="26" cx="286" r="10"/>
 <path id="path4230" style="color:#000000" d="m11 3a8 8 0 0 0 -8 8 8 8 0 0 0 8 8 8 8 0 0 0 8 -8 8 8 0 0 0 -8 -8zm1 2h1v4.5039a2.5 2.5 0 0 1 1.5 -0.5039 2.5 2.5 0 0 1 2.5 2.5 2.5 2.5 0 0 1 -2.5 2.5 2.5 2.5 0 0 1 -1.5 -0.502v0.502h-1v-2.5-6.5zm-4.5 4a2.5 2.5 0 0 1 1.5 0.502v-0.502h1v2.5 6.5h-1v-4.5039a2.5 2.5 0 0 1 -1.5 0.504 2.5 2.5 0 0 1 -2.5 -2.5 2.5 2.5 0 0 1 2.5 -2.5zm0 1a1.5 1.5 0 0 0 -1.5 1.5 1.5 1.5 0 0 0 1.5 1.5 1.5 1.5 0 0 0 1.5 -1.5 1.5 1.5 0 0 0 -1.5 -1.5zm7 0a1.5 1.5 0 0 0 -1.5 1.5 1.5 1.5 0 0 0 1.5 1.5 1.5 1.5 0 0 0 1.5 -1.5 1.5 1.5 0 0 0 -1.5 -1.5z" fill="#fff"/>
</svg>

<?xml version="1.0" encoding="UTF-8" standalone="no"?>
<svg xmlns:dc="http://purl.org/dc/elements/1.1/" xmlns:cc="http://creativecommons.org/ns#" xmlns:rdf="http://www.w3.org/1999/02/22-rdf-syntax-ns#" xmlns:svg="http://www.w3.org/2000/svg" xmlns="http://www.w3.org/2000/svg" id="svg2817" height="22" width="22" version="1.0">
    <metadata id="metadata57">
        <rdf:RDF>
            <cc:Work rdf:about="">
                <dc:format>
                    image/svg+xml
                </dc:format>
                <dc:type rdf:resource="http://purl.org/dc/dcmitype/StillImage"/>
                <dc:title/>
            </cc:Work>
        </rdf:RDF>
    </metadata>
    <defs id="defs2819">
        <clipPath id="clipPath4186" clipPathUnits="userSpaceOnUse">
            <circle id="path4188" style="color:#000000;fill:url(#linearGradient4190)" cy="26" cx="286" r="10"/>
        </clipPath>
    </defs>
    <circle id="path4240" style="color:#000000;opacity:0;stroke-width:0.45455" clip-path="url(#clipPath4186)" transform="matrix(1.4,0,0,1.4,-384.4,-30.4)" cy="26" cx="286" r="10"/>
    <circle id="path4242" style="color:#000000;opacity:0;stroke-width:0.90908998" clip-path="url(#clipPath4186)" transform="matrix(1.4,0,0,1.4,-384.4,-30.4)" cy="26" cx="286" r="10"/>
    <path id="path4230" d="m 11,3 a 8,8 0 0 0 -8,8 8,8 0 0 0 8,8 8,8 0 0 0 8,-8 8,8 0 0 0 -8,-8 z m 1,2 1,0 0,4.503906 A 2.5,2.5 0 0 1 14.5,9 2.5,2.5 0 0 1 17,11.5 2.5,2.5 0 0 1 14.5,14 2.5,2.5 0 0 1 13,13.498047 L 13,14 12,14 12,11.5 12,5 Z M 7.5,9 A 2.5,2.5 0 0 1 9,9.501953 L 9,9 l 1,0 0,2.5 0,6.5 -1,0 0,-4.503906 A 2.5,2.5 0 0 1 7.5,14 2.5,2.5 0 0 1 5,11.5 2.5,2.5 0 0 1 7.5,9 Z m 0,1 A 1.5,1.5 0 0 0 6,11.5 1.5,1.5 0 0 0 7.5,13 1.5,1.5 0 0 0 9,11.5 1.5,1.5 0 0 0 7.5,10 Z m 7,0 A 1.5,1.5 0 0 0 13,11.5 1.5,1.5 0 0 0 14.5,13 1.5,1.5 0 0 0 16,11.5 1.5,1.5 0 0 0 14.5,10 Z" style="color:#000000;opacity:1;fill:#ffffff;fill-opacity:1"/>
</svg>
